X:1
T:Here from the World We Turn
T:Here from the World We Turn
T:William Howard Doane
T:Frances Jane (Fanny) Crosby, 1877
T:Public Domain Courtesy of the Cyber Hymnal™
C:William Howard Doane
Z:Public Domain
Z:Courtesy of the Cyber Hymnal™
%%score ( 1 2 ) ( 3 4 )
L:1/8
Q:1/4=115
M:4/4
K:Bb
V:1 treble 
V:2 treble 
V:3 bass 
V:4 bass 
V:1
 [DB]4 [FA]2 [EG]2 | [DF]3 [EG] [DF]4 | [FB]4 [Fc]2 [Fd]2 | [Fc]6 z2 | [DB]4 [FA]2 [EG]2 | %5
w: 1.~Here from the|world we turn,|Je- sus to|seek;|Here may His|
w: 2.~Come, ho- ly|Com- fort- er,|pre- sence di-|vine,|Now in our|
w: 3.~Sav- ior, Thy|work re- vive;|here may we|see|Those who are|
 [DF]3 [EG] [DF]4 | [EG]4 [Gc]2 [FA]2 | [FB]6 z2 | [Fd]4 [Ge]2 [Fd]2 | [Fd]3 [Fc] c4 | %10
w: lov- ing voice|ten- der- ly|speak!|Je- sus, our|dear- est friend,|
w: long- ing hearts|gra- cious- ly|shine;|O for Thy|might- y power!|
w: dead in sin|quick- ened by|Thee;|Come to our|hearts to- night,|
 ([DB]2 [Bd]2) [Ac]2 [GB]2 | [GB]3 [^FA] [FA]4 | (G2 B2) [FA]2 [EG]2 | [EG]3 [DF] [DF]4 | %14
w: while * at Thy|feet we bend,|O * let Thy|smile de- scend!|
w: O * for a|bless- èd shower,|Fill- * ing this|hal- lowed hour|
w: make * ev- ery|bur- den light;|Cheer * Thou our|wait- ing sight;|
 [CF]4 [DF]2 [EF]2 | [DF]6 z2 |] %16
w: ’Tis Thee we|seek.|
w: with joy di-|vine!|
w: we long for|Thee.|
V:2
 x8 | x8 | x8 | x8 | x8 | x8 | x8 | x8 | x8 | x4 (F2 E2) | x8 | x8 | G4 x4 | x8 | x8 | x8 |] %16
V:3
 [B,,F,]4 [B,,B,]2 [B,,B,]2 | [B,,B,]3 [B,,B,] [B,,B,]4 | [D,B,]4 [C,A,]2 [B,,B,]2 | [F,A,]6 z2 | %4
 [B,,F,]4 [B,,B,]2 [B,,B,]2 | [B,,B,]3 [B,,B,] [B,,B,]4 | [E,B,]4 [C,E]2 [F,E]2 | [B,,D]6 z2 | %8
 [B,,B,]4 [B,,B,]2 [B,,B,]2 | [F,B,]3 [F,A,] [F,A,]4 | [G,D]4 [^F,D]2 [G,D]2 | %11
 [D,D]3 [D,D] (D2 C2) | [E,B,]4 [E,B,]2 [E,B,]2 | [B,,B,]3 [B,,B,] [B,,B,]4 | %14
 [F,A,]4 [F,B,]2 [F,C]2 | [B,,B,]6 z2 |] %16
V:4
 x8 | x8 | x8 | x8 | x8 | x8 | x8 | x8 | x8 | x8 | x8 | x4 D,4 | x8 | x8 | x8 | x8 |] %16

